src/Resource_Files/fluent/heading-6.svg

<svg clip-rule="evenodd" fill-rule="evenodd" stroke-linejoin="round" stroke-miterlimit="2" viewBox="0 0 16 16" xmlns="http://www.w3.org/2000/svg"><g fill="#1abc9c"><path d="m2.189 7.242c.096-.078.199-.153.311-.226.394-.258.894-.394 1.503-.394.432 0 .838.076 1.217.226.381.151.714.358 1.001.622.288.265.518.576.689.934.174.363.261.748.261 1.155v4.083c0 .201-.079.346-.212.446-.113.086-.242.129-.386.129-.128 0-.252-.04-.37-.129-.133-.1-.211-.245-.211-.446v-4.083c0-.219-.05-.437-.147-.652-.1-.22-.238-.413-.414-.579-.181-.171-.392-.309-.634-.416-.235-.104-.484-.156-.746-.156-.238 0-.468.042-.692.126-.222.084-.42.202-.592.356-.171.154-.311.343-.419.567-.107.222-.159.474-.159.754v4.083c0 .15-.054.285-.17.402-.11.111-.251.173-.428.173-.185 0-.326-.068-.431-.185-.101-.114-.15-.245-.15-.39v-10.689c0-.188.066-.322.168-.416.093-.085.227-.144.413-.144.168 0 .301.051.405.137.124.102.193.241.193.423z" fill-rule="nonzero"/><path d="m10.608 8.036c.194-.143.408-.262.644-.356.473-.189 1.001-.285 1.583-.285.46 0 .889.05 1.288.148.42.103.787.278 1.101.523.32.25.572.584.753 1.005.173.403.263.901.263 1.494v.423c0 .591-.089 1.095-.261 1.512-.179.433-.429.783-.745 1.052-.314.266-.68.46-1.1.58-.402.114-.835.172-1.299.172s-.899-.058-1.306-.172c-.426-.12-.796-.314-1.109-.58-.317-.269-.566-.619-.745-1.052-.172-.417-.262-.921-.262-1.512v-4.739c0-.592.09-1.095.262-1.512.179-.433.425-.782.734-1.05s.676-.462 1.104-.582c.407-.115.842-.172 1.306-.172.524 0 .993.072 1.409.213.425.145.783.339 1.074.58.3.248.53.538.692.869.164.335.246.687.246 1.056 0 .225-.081.374-.192.466-.109.09-.238.137-.389.137-.138 0-.266-.039-.384-.121-.147-.101-.23-.25-.23-.453 0-.235-.051-.446-.157-.634-.111-.194-.263-.36-.457-.497-.207-.147-.446-.261-.718-.342-.279-.084-.577-.126-.894-.126-.703 0-1.255.165-1.648.518-.388.348-.563.903-.563 1.65zm0 2.952v-.554c0-.675.173-1.163.562-1.447.414-.302.97-.443 1.665-.443.708 0 1.264.147 1.661.464.382.305.549.83.549 1.557v.423c0 .747-.175 1.301-.562 1.649-.394.353-.946.518-1.648.518-.704 0-1.259-.165-1.658-.519-.392-.348-.569-.901-.569-1.648z" transform="translate(-.740169)"/></g></svg>

<?xml version="1.0" encoding="UTF-8" standalone="no"?>
<!DOCTYPE svg PUBLIC "-//W3C//DTD SVG 1.1//EN" "http://www.w3.org/Graphics/SVG/1.1/DTD/svg11.dtd">
<svg width="100%" height="100%" viewBox="0 0 16 16" version="1.1" xmlns="http://www.w3.org/2000/svg" xmlns:xlink="http://www.w3.org/1999/xlink" xml:space="preserve" xmlns:serif="http://www.serif.com/" style="fill-rule:evenodd;clip-rule:evenodd;stroke-linejoin:round;stroke-miterlimit:2;">
    <path d="M2.189,7.242C2.285,7.164 2.388,7.089 2.5,7.016C2.894,6.758 3.394,6.622 4.003,6.622C4.435,6.622 4.841,6.698 5.22,6.848C5.601,6.999 5.934,7.206 6.221,7.47C6.509,7.735 6.739,8.046 6.91,8.404C7.084,8.767 7.171,9.152 7.171,9.559C7.171,9.559 7.171,13.642 7.171,13.642C7.171,13.843 7.092,13.988 6.959,14.088C6.846,14.174 6.717,14.217 6.573,14.217C6.445,14.217 6.321,14.177 6.203,14.088C6.07,13.988 5.992,13.843 5.992,13.642L5.992,9.559C5.992,9.34 5.942,9.122 5.845,8.907C5.745,8.687 5.607,8.494 5.431,8.328C5.25,8.157 5.039,8.019 4.797,7.912C4.562,7.808 4.313,7.756 4.051,7.756C3.813,7.756 3.583,7.798 3.359,7.882C3.137,7.966 2.939,8.084 2.767,8.238C2.596,8.392 2.456,8.581 2.348,8.805C2.241,9.027 2.189,9.279 2.189,9.559L2.189,13.642C2.189,13.792 2.135,13.927 2.019,14.044C1.909,14.155 1.768,14.217 1.591,14.217C1.406,14.217 1.265,14.149 1.16,14.032C1.059,13.918 1.01,13.787 1.01,13.642L1.01,2.953C1.01,2.765 1.076,2.631 1.178,2.537C1.271,2.452 1.405,2.393 1.591,2.393C1.759,2.393 1.892,2.444 1.996,2.53C2.12,2.632 2.189,2.771 2.189,2.953L2.189,7.242Z" style="fill:rgb(26,188,156);fill-rule:nonzero;"/>
    <g transform="matrix(1,0,0,1,-0.740169,0)">
        <path d="M10.608,8.036C10.802,7.893 11.016,7.774 11.252,7.68C11.725,7.491 12.253,7.395 12.835,7.395C13.295,7.395 13.724,7.445 14.123,7.543C14.543,7.646 14.91,7.821 15.224,8.066C15.544,8.316 15.796,8.65 15.977,9.071C16.15,9.474 16.24,9.972 16.24,10.565L16.24,10.988C16.24,11.579 16.151,12.083 15.979,12.5C15.8,12.933 15.55,13.283 15.234,13.552C14.92,13.818 14.554,14.012 14.134,14.132C13.732,14.246 13.299,14.304 12.835,14.304C12.371,14.304 11.936,14.246 11.529,14.132C11.103,14.012 10.733,13.818 10.42,13.552C10.103,13.283 9.854,12.933 9.675,12.5C9.503,12.083 9.413,11.579 9.413,10.988C9.413,10.988 9.413,6.249 9.413,6.249C9.413,5.657 9.503,5.154 9.675,4.737C9.854,4.304 10.1,3.955 10.409,3.687C10.718,3.419 11.085,3.225 11.513,3.105C11.92,2.99 12.355,2.933 12.819,2.933C13.343,2.933 13.812,3.005 14.228,3.146C14.653,3.291 15.011,3.485 15.302,3.726C15.602,3.974 15.832,4.264 15.994,4.595C16.158,4.93 16.24,5.282 16.24,5.651C16.24,5.876 16.159,6.025 16.048,6.117C15.939,6.207 15.81,6.254 15.659,6.254C15.521,6.254 15.393,6.215 15.275,6.133C15.128,6.032 15.045,5.883 15.045,5.68C15.045,5.445 14.994,5.234 14.888,5.046C14.777,4.852 14.625,4.686 14.431,4.549C14.224,4.402 13.985,4.288 13.713,4.207C13.434,4.123 13.136,4.081 12.819,4.081C12.116,4.081 11.564,4.246 11.171,4.599C10.783,4.947 10.608,5.502 10.608,6.249L10.608,8.036ZM10.608,10.988L10.608,10.434C10.608,9.759 10.781,9.271 11.17,8.987C11.584,8.685 12.14,8.544 12.835,8.544C13.543,8.544 14.099,8.691 14.496,9.008C14.878,9.313 15.045,9.838 15.045,10.565L15.045,10.988C15.045,11.735 14.87,12.289 14.483,12.637C14.089,12.99 13.537,13.155 12.835,13.155C12.131,13.155 11.576,12.99 11.177,12.636C10.785,12.288 10.608,11.735 10.608,10.988Z" style="fill:rgb(26,188,156);"/>
    </g>
</svg>
